X:705
T:Jacky Tar
S:Various
Z:Nigel Gatherer
M:4/4
L:1/8
K:Em
B2 | e2 e2 e>fg>e | d2 B2 B2 d>B | A>Bd>e f>ae>f | d2 A2 A2 
z2 | e2 e>f g2 f>e | d>BG>B d2 B>A | G>FG>E D>EF>A | G2 E2 E2 ||
G>A | B>GE>G B>GE>G | B>AG>F E2 F>G | A>FD>F A>FD>F | A>GF>E D2  
E>F | G>FG>E G2 F>E | d>BG>B d2 B>A | G>FG>E D>EF>A | G2 E2 E2 ||
<end>
<start>
